X:025
L:1/8
M:2C|
K:Am
ed | c2 Bc AcBA | GEGA GABd | edcB ABcd | e2 A2 Afed |
c2 Bc AcBA | GEGA GABd | eg^fa gedB | A2 AA A2 ::
e^f | g2 ga gedB | A2 AA A2 e^f | g2 ga gedc | BcAB G3 B |

